!!!!SEGMENT: pl-cz--iii-259--001_gotschalk-filip--2-duetti-pastorella.krn
!!!cenid: 18xx:116
!!!COM: Gotschalk, Filip
!!!COM-rismid: pe30020320
!!!CDT: 1760-1809
!!!CNT:
!!!OTL: Pastorella
!!!PDT:
!!!AGN:
!!!SMS-siglum: PL-CZ
!!!SMS-shelfmark: III-259
!!!SMS-shelfwork: 001 W
!!!NIFC-rismid:
!!!URL-scan: http://repozytorium.nifc.pl/skany/pl-cz-nut--iii-259
!!!ONB-nifc:
**kern	**fb	**dynam	**kern	**text	**text	**kern	**dynam	**kern	**dynam	**kern	**kern
*part6	*	*part6	*part5	*part5	*part5	*part4	*part4	*part3	*part3	*part2	*part1
*staff6	*	*	*staff5	*staff5	*staff5	*staff4	*	*staff3	*	*staff2	*staff1
*Ibass	*	*	*Ivox	*	*	*Ivioln	*	*Ivioln	*	*Iempty	*Iempty
*I"Basso	*	*	*I"Canto I	*	*	*I"Violino Secondo	*	*I"Violino Primo	*	*I"Cornu Secondo in B	*I"[Cornu I in B]*
*I'B	*	*	*I'C I	*	*	*I'Vn II	*	*I'Vn I	*	*I'Cor II	*I'[Cor I]
*clefF4	*	*	*clefC1	*	*	*clefG2	*	*clefG2	*	*clefG2	*clefG2
*	*	*	*	*	*	*	*	*	*	*ITrd1c2	*ITrd1c2
*k[b-e-]	*	*	*k[b-e-]	*	*	*k[b-e-]	*	*k[b-e-]	*	*k[b-e-]	*k[b-e-]
*B-:	*	*	*B-:	*	*	*B-:	*	*B-:	*	*	*
*M2/4	*	*	*M2/4	*	*	*M2/4	*	*M2/4	*	*M2/4	*M2/4
!	!	!	!LO:TX:a:t=Moderato	!	!	!	!	!LO:TX:a:t=Moderato	!	!	!LO:TX:a:t=Problem&colon; w źródle brak głosu
8r	.	.	8r	.	.	8r	.	8f	.	8r	8r
=1	=1	=1	=1	=1	=1	=1	=1	=1	=1	=1	=1
!	!	!	!	!	!	!	!	!	!	!	!LO:TX:a:B:t=Moderato
8B-L	.	f	2r	.	.	(<16dLL	.	8b-L	f	8dL/	8b-L
.	.	.	.	.	.	16f	.	.	.	.	.
8B-	.	.	.	.	.	16d	.	16b-L	.	16dL/	16b-L
.	.	.	.	.	.	16fJJ)	.	16ddJJ	.	16b-JJ\	16ddJJ
.	.	.	.	.	.	.	.	(>8qqb-/	.	.	.
8F	.	.	.	.	.	(<16e-LL	.	8ccL\)	.	4f	4cc
.	.	.	.	.	.	16f	.	.	.	.	.
8FJ	.	.	.	.	.	16e-	.	16aL	.	.	.
.	.	.	.	.	.	16fJJ)	.	16fJJ	.	.	.
=2	=2	=2	=2	=2	=2	=2	=2	=2	=2	=2	=2
8B-L\	.	.	2r	.	.	(<16dLL	.	8b-L	.	8dL	8b-L
.	.	.	.	.	.	16f	.	.	.	.	.
8BB-/	.	.	.	.	.	16d	.	16b-L	.	16dL	16b-L
.	.	.	.	.	.	16fJJ)	.	16ddJJ	.	16b-JJ	16ddJJ
8BB-/	.	.	.	.	.	(<16b-LL	.	4ff	.	4dd	4ff
.	.	.	.	.	.	16f	.	.	.	.	.
8BB-J/	.	.	.	.	.	16d	.	.	.	.	.
.	.	.	.	.	.	16fJJ)	.	.	.	.	.
=3	=3	=3	=3	=3	=3	=3	=3	=3	=3	=3	=3
8BB-L	.	.	2r	.	.	16dLL	.	8ffL	.	2r	2r
.	.	.	.	.	.	16f	.	.	.	.	.
8BB-J	.	.	.	.	.	16d	.	16ddL	.	.	.
.	.	.	.	.	.	16fJJ	.	16b-JJ	.	.	.
8FL	.	.	.	.	.	8gL	.	8ee-L	.	.	.
8FJ	.	.	.	.	.	16e-L	.	16ccL	.	.	.
.	.	.	.	.	.	16cJJ	.	16aJJ	.	.	.
=4	=4	=4	=4	=4	=4	=4	=4	=4	=4	=4	=4
8B-`L	.	.	2r	.	.	8b-L	.	8b-L	.	8B-L	8b-L
16B-`L	.	.	.	.	.	16b-L	.	16b-L	.	16B-L	16b-L
16d`JJ	.	.	.	.	.	16ddJJ	.	16ddJJ	.	16dJJ	16ddJJ
4F`	.	.	.	.	.	4f	.	4f	.	4F	4f
=5	=5	=5	=5	=5	=5	=5	=5	=5	=5	=5	=5
8B-L	.	.	2r	.	.	(<16dLL	.	8b-L	.	8B-L	8fL
.	.	.	.	.	.	16f	.	.	.	.	.
8B-	.	.	.	.	.	16d	.	16b-L	.	16dL	16b-L
.	.	.	.	.	.	16fJJ)	.	16ddJJ	.	16b-JJ	16ddJJ
8F	.	.	.	.	.	(<16e-LL	.	16ccLL	.	4f	4cc
.	.	.	.	.	.	16f	.	16b-	.	.	.
8FJ	.	.	.	.	.	16e-	.	16a	.	.	.
.	.	.	.	.	.	16fJJ)	.	16fJJ	.	.	.
!LO:LB:g=original	!	!	!	!	!	!	!	!LO:LB:g=original	!	!LO:LB:g=original	!
=6	=6	=6	=6	=6	=6	=6	=6	=6	=6	=6	=6
8B-L\	.	.	2r	.	.	(<16dLL	.	8b-L	.	8dL	8b-L
.	.	.	.	.	.	16f	.	.	.	.	.
8BB-/	.	.	.	.	.	16d	.	16b-L	.	16dL	16b-L
.	.	.	.	.	.	16fJJ)	.	16ddJJ	.	16b-JJ	16ddJJ
!	!	!	!	!	!	!LO:LB:g=original	!	!	!	!	!
8BB-/	.	.	.	.	.	(<16b-LL	.	4ff	.	4dd	4ff
.	.	.	.	.	.	16f	.	.	.	.	.
8BB-J/	.	.	.	.	.	16d	.	.	.	.	.
.	.	.	.	.	.	16fJJ)	.	.	.	.	.
=7	=7	=7	=7	=7	=7	=7	=7	=7	=7	=7	=7
.	.	.	.	.	.	.	.	(>8qqgg	.	.	.
8B-L	.	.	2r	.	.	16dLL	.	8ffL)	.	8r	8r
.	.	.	.	.	.	16f	.	.	.	.	.
8B-	.	.	.	.	.	16d 16b-	.	16ddL	.	8b-L	8dd
.	.	.	.	.	.	16fJJ	.	16b-JJ	.	.	.
.	.	.	.	.	.	.	.	(>8qqff/	.	.	.
8F	.	.	.	.	.	8gL	.	8ee-L)	.	8cc	8ee-L
8FJ	.	.	.	.	.	16e-L	.	16ccL	.	8fJ	8ccJ
.	.	.	.	.	.	16cJJ	.	16aJJ	.	.	.
=8	=8	=8	=8	=8	=8	=8	=8	=8	=8	=8	=8
8B-L	.	.	2r	.	.	16e-LL	.	4cc	.	4f	4cc
.	.	.	.	.	.	16f	.	.	.	.	.
8FJ	.	.	.	.	.	16e-	.	.	.	.	.
.	.	.	.	.	.	16fJJ	.	.	.	.	.
4BB-	.	.	.	.	.	4d	.	8b-L\	.	8d	8b-
.	.	.	.	.	.	.	.	8fJ/	p	8r	8r
=9||	=9||	=9||	=9||	=9||	=9||	=9||	=9||	=9||	=9||	=9||	=9||
8BB-L	.	p	8b-	Dor-	.	8dL	p	8b-L	.	2r	2r
8BB-J	.	.	16b-LL	-mi	.	8f	.	8b-	.	.	.
.	.	.	16ddJJ	.	.	.	.	.	.	.	.
8FL	.	.	8cc	dor-	.	8e-	.	8cc	.	.	.
*	*	*	*^	*	*	*	*	*	*	*	*
8FJ	.	.	16a	16aLL	-mio	.	8fJ	.	8ccJ	.	.	.
.	.	.	16f	16fJJ	.	.	.	.	.	.	.	.
*	*	*	*v	*v	*	*	*	*	*	*	*	*
=10	=10	=10	=10	=10	=10	=10	=10	=10	=10	=10	=10
4BB-	.	.	8b-	Je-	.	8B-L	.	8b-L	.	2r	2r
.	.	.	16b-LL	-su-	.	16B-L	.	16b-L	.	.	.
.	.	.	16ddJJ	.	.	16dJJ	.	16ddJJ	.	.	.
16r	.	.	4ff	-le	.	4f	.	4ff	.	.	.
16BB-LL/	.	.	.	.	.	.	.	.	.	.	.
16D	.	.	.	.	.	.	.	.	.	.	.
16FJJ	.	.	.	.	.	.	.	.	.	.	.
=11	=11	=11	=11	=11	=11	=11	=11	=11	=11	=11	=11
8B-L	.	.	8ff	dor-	.	8fL	.	8ffL	f	8r	8r
8B-	.	.	16ddLL	-mi	.	8fJ	.	16ddL	.	8b-L\	8dd
.	.	.	16b-JJ	.	.	.	.	16b-JJ	.	.	.
8F	.	.	8ee-	dor-	.	8gL	.	8ee-L	p	8cc\	8ee-L
8FJ	.	.	16ccLL	-mi	.	16e-L	.	16ccL	.	8fJ/	8ccJ
.	.	.	16aJJ	.	.	16cJJ	.	16aJJ	.	.	.
!	!	!	!LO:LB:g=original	!	!	!	!	!	!	!	!
=12	=12	=12	=12	=12	=12	=12	=12	=12	=12	=12	=12
8B-`L	.	.	8b-	par-	.	8b-L	.	8b-L	.	8B-L	8b-L
16B-`L	.	.	16b-LL	-vu-	.	16b-L	.	16b-L	.	16B-L	16b-L
16d`JJ	.	.	16ddJJ	.	.	16ddJJ	.	16ddJJ	.	16dJJ	16ddJJ
16F`LL	.	.	8f	-le	.	4f	.	4f	.	4F	4f
16E-`	.	.	.	.	.	.	.	.	.	.	.
16D`	.	.	8f	o	.	.	.	.	.	.	.
16C`JJ	.	.	.	.	.	.	.	.	.	.	.
!LO:LB:g=original	!	!	!	!	!	!	!	!	!	!LO:LB:g=original	!
=13	=13	=13	=13	=13	=13	=13	=13	=13	=13	=13	=13
8BB-L	.	.	8b-	u-	.	(<16dLL	.	8b-L	.	2r	2r
.	.	.	.	.	.	16f	.	.	.	.	.
8BB-J	.	.	16b-	-ni-	.	16d	.	8b-	.	.	.
.	.	.	16dd	-ca	.	16fJJ)	.	.	.	.	.
8FL	.	.	8cc	spes	.	(<16e-LL	.	8cc	.	.	.
.	.	.	.	.	.	16f	.	.	.	.	.
8FJ	.	.	16aLL	spes	.	16e-	.	8ccJ	.	.	.
.	.	.	16fJJ	.	.	16fJJ)	.	.	.	.	.
!	!	!	!	!	!	!	!	!LO:LB:g=original	!	!	!
=14	=14	=14	=14	=14	=14	=14	=14	=14	=14	=14	=14
4B-	.	.	8b-L	nos-	.	8B-L	.	8b-L	.	2r	2r
.	.	.	16b-L	.	.	16B-L	.	16b-L	.	.	.
.	.	.	16ddJJ	.	.	16dJJ	.	16ddJJ	.	.	.
16r	.	.	4ff	-tra	.	4f	.	4ff	.	.	.
16BB-LL/	.	.	.	.	.	.	.	.	.	.	.
16D	.	.	.	.	.	.	.	.	.	.	.
16FJJ	.	.	.	.	.	.	.	.	.	.	.
!	!	!	!	!	!	!LO:LB:g=original	!	!	!	!	!
=15	=15	=15	=15	=15	=15	=15	=15	=15	=15	=15	=15
8B-L\	.	.	8ff	u-	.	8dL	.	8ffL	.	2r	2r
8BB-J/	.	.	16dd	-ni-	.	8fJ	.	16ddL	.	.	.
.	.	.	16b-	-ca	.	.	.	16b-J	.	.	.
!	!	!	!LO:LB:g=original	!	!	!	!	!	!	!	!
8FL\	.	.	8ee-	spes	.	8gL	.	8ee-	.	.	.
8FFJ/	.	.	16ccLL	spes	.	16e-L	.	16ccL	.	.	.
.	.	.	16aJJ	.	.	16cJJ	.	16aJJ	.	.	.
=16	=16	=16	=16	=16	=16	=16	=16	=16	=16	=16	=16
8B-L	.	.	8.ccL	nos-	.	8.e-L	.	8.ccL	.	2r	2r
8FJ	.	.	.	.	.	.	.	.	.	.	.
.	.	.	16ddJk	.	.	16fJk	.	16ddJk	.	.	.
8BB-	.	.	4b-	-tra	.	8dL	.	8b-L	.	.	.
8r	.	.	.	.	.	16B-L	.	16b-L	.	.	.
.	.	.	.	.	.	16cJJ	.	16ccJJ	f	.	.
=17!|:	=17!|:	=17!|:	=17!|:	=17!|:	=17!|:	=17!|:	=17!|:	=17!|:	=17!|:	=17!|:	=17!|:
!	!	!	!LO:TX:a:t=Problem&colon; brak znaku repetycji	!	!	!	!	!	!	!	!
*	*	*	*	*	*	*	*	*	*	*2\right	*2\right
8B-L	.	f	2r	.	.	8dL	f	8ddL	.	(>2b-	2b-
8B-	.	.	.	.	.	16dL	.	16ddL	.	.	.
.	.	.	.	.	.	16e-JJ	.	16ee-JJ	.	.	.
8B-	.	.	.	.	.	8fL	.	8ffL	.	.	.
8B-J	.	.	.	.	.	16dL	.	16ddL	.	.	.
.	.	.	.	.	.	16B-JJ	.	16b-JJ	.	.	.
=18	=18	=18	=18	=18	=18	=18	=18	=18	=18	=18	=18
8E-L	.	.	2r	.	.	8.e-L	.	8.ee-L	.	4b-)	4b-
8E-	.	.	.	.	.	.	.	.	.	.	.
.	.	.	.	.	.	16gK	.	16ggJk	.	.	.
8G	.	.	.	.	.	8e-	.	8ee-L	.	4r	4r
8GJ	.	.	.	.	.	8e-J	.	8b-J	.	.	.
=19	=19	=19	=19	=19	=19	=19	=19	=19	=19	=19	=19
8A-XL\	.	.	2r	.	.	8e-L	.	8ccL	.	2r	2r
8A-\	.	.	.	.	.	8e-J	.	16ccL	.	.	.
.	.	.	.	.	.	.	.	16ee-JJ	.	.	.
8B-\	.	.	.	.	.	8fL	.	8ddL	.	.	.
8BB-J/	.	.	.	.	.	16fL	.	16ddL	.	.	.
.	.	.	.	.	.	16a-XJJ	.	16ffJJ	.	.	.
!LO:LB:g=original	!	!	!	!	!	!	!	!LO:LB:g=original	!	!	!
=20	=20	=20	=20	=20	=20	=20	=20	=20	=20	=20	=20
8E-L\	.	.	2r	.	.	(<16a-XLL	.	4gg	.	2r	2r
.	.	.	.	.	.	16b-	.	.	.	.	.
8BB-J/	.	.	.	.	.	16a-	.	.	.	.	.
.	.	.	.	.	.	16b-JJ)	.	.	.	.	.
4EE-	.	.	.	.	.	8gL	.	8ee-L	.	.	.
.	.	.	.	.	.	16cL	.	16ccL	.	.	.
.	.	.	.	.	.	16dJJ	.	16ddJJ	.	.	.
=21	=21	=21	=21	=21	=21	=21	=21	=21	=21	=21	=21
8cL\	n	.	2r	.	.	8enL	.	8eenL	.	2cc	2cc
8C/	.	.	.	.	.	16eL	.	16eeL	.	.	.
.	.	.	.	.	.	16fJJ	.	16ffJJ	.	.	.
8C/	.	.	.	.	.	8gL	.	8ggL	.	.	.
8CJ/	.	.	.	.	.	16eL	.	16eeL	.	.	.
.	.	.	.	.	.	16cJJ	.	16ccJJ	.	.	.
!	!	!	!	!	!	!LO:LB:g=original	!	!	!	!	!
=22	=22	=22	=22	=22	=22	=22	=22	=22	=22	=22	=22
8FL	.	.	2r	.	.	8.fL	.	8.ffL	.	4cc	4cc
8F	.	.	.	.	.	.	.	.	.	.	.
.	.	.	.	.	.	16aJk	.	16aaJk	.	.	.
8A	.	.	.	.	.	8fL	.	8ffL	.	4r	4r
8AJ	.	.	.	.	.	8fJ 8an	.	8ccJ	.	.	.
=23	=23	=23	=23	=23	=23	=23	=23	=23	=23	=23	=23
8B-L\	.	.	2r	.	.	8fL	.	8ddL	.	2r	2r
8B-\	.	.	.	.	.	8fJ	.	16ddL	.	.	.
.	.	.	.	.	.	.	.	16ffJJ	.	.	.
8c\	.	.	.	.	.	8gL	.	8eenL	.	.	.
8CJ/	.	.	.	.	.	16gL	.	16eeL	.	.	.
.	.	.	.	.	.	16b-JJ	.	16ggJJ	.	.	.
=24	=24	=24	=24	=24	=24	=24	=24	=24	=24	=24	=24
8FL	.	.	2r	.	.	8.aL	.	8.ggL	.	2r	2r
8CJ	.	.	.	.	.	.	.	.	.	.	.
.	.	.	.	.	.	16ccJk	.	16aaJk	.	.	.
16FLL	.	.	.	.	.	4a	.	4ff	.	.	.
16E-	.	.	.	.	.	.	.	.	.	.	.
16D	.	.	.	.	.	.	.	.	.	.	.
16CJJ	.	.	.	.	.	.	.	.	.	.	.
=25	=25	=25	=25	=25	=25	=25	=25	=25	=25	=25	=25
8BB-L\	.	p	8ff	dor-	.	8ddL	.	8ffL	p	2r	2r
8B-/	.	.	16ff	-mi	.	8ddJ	.	8ff	.	.	.
.	.	.	16ff	o	.	.	.	.	.	.	.
8B-/	.	.	8dd	Je-	.	8b-L	.	8dd	.	.	.
8B-J/	.	.	16ddLL	-su	.	16b-L	.	16ddL	.	.	.
.	.	.	16b-JJ	.	.	16fJJ	.	16b-JJ	.	.	.
!LO:LB:g=original	!	!	!	!	!	!	!	!	!	!	!
=26	=26	=26	=26	=26	=26	=26	=26	=26	=26	=26	=26
4F	.	.	8ee-	par-	.	8ccL	.	8ee-L	.	2r	2r
.	.	.	16ee-LL	-vu-	.	8ccJ	.	8ee-J	.	.	.
.	.	.	16ggJJ	.	.	.	.	.	.	.	.
16r	.	.	4cc	-le	.	4f 4a	.	4cc	.	.	.
16FLL	.	.	.	.	.	.	.	.	.	.	.
16A	.	.	.	.	.	.	.	.	.	.	.
16FJJ	.	.	.	.	.	.	.	.	.	.	.
!	!	!	!LO:LB:g=original	!	!	!	!	!LO:LB:g=original	!	!	!
=27	=27	=27	=27	=27	=27	=27	=27	=27	=27	=27	=27
*	*	*	*	*	*	*tremolo	*	*	*	*	*
8B-L\	.	.	8ff	sub	.	8fL 8b-	.	8ffL	.	2r	2r
8BB-/	.	.	8ff	ma-	.	8f 8b-	.	8ffJ	.	.	.
.	.	.	8qqee-/	.	.	.	.	.	.	.	.
8BB-/	.	.	8dd	-ter-	.	8f 8b-	.	8ddL	.	.	.
8BB-J/	.	.	16ddLL	-no	.	8fJ 8b-	.	16ddL	.	.	.
.	.	.	16b-JJ	.	.	.	.	16b-JJ	.	.	.
*	*	*	*	*	*	*Xtremolo	*	*	*	*	*
=28	=28	=28	=28	=28	=28	=28	=28	=28	=28	=28	=28
4F	.	.	8a	u-	.	8aL\	.	8aL\	.	2r	2r
.	.	.	16aLL	-be-	.	16aL	.	16aL	.	.	.
.	.	.	16ccJJ	.	.	16ccJJ	.	16ccJJ	.	.	.
16FLL	.	.	4f	-re	.	4f	.	4f	.	.	.
16E-	.	.	.	.	.	.	.	.	.	.	.
16D	.	.	.	.	.	.	.	.	.	.	.
16CJJ	.	.	.	.	.	.	.	.	.	.	.
=29	=29	=29	=29	=29	=29	=29	=29	=29	=29	=29	=29
8BB-L\	.	.	2r	.	.	8fL	f	8ffL	f	8ddL\	8ffL
8B-J/	.	.	.	.	.	8fJ	.	8ffJ	.	8dd\	8ffJ
8BB-L\	.	.	.	.	.	16e-LL	.	(>16ee-LL	.	8b-\	8ddL
.	.	.	.	.	.	16d	.	16dd	.	.	.
8B-J/	.	.	.	.	.	16c	.	16cc	.	8dJ/	8b-J
.	.	.	.	.	.	16B-JJ	.	16b-JJ)	.	.	.
=30	=30	=30	=30	=30	=30	=30	=30	=30	=30	=30	=30
4F	7	.	2r	.	.	16e-LL	.	(>16ee-LL	.	8.ccL	8.ee-L
.	.	.	.	.	.	16d	.	16dd	.	.	.
.	.	.	.	.	.	16e-	.	16ee-	.	.	.
.	.	.	.	.	.	16gJJ	.	16ggJJ)	.	16ee-Jk	16ggJk
16r	.	.	.	.	.	4c	.	4cc	.	4f	4cc
16FLL	6	.	.	.	.	.	.	.	.	.	.
16G	.	.	.	.	.	.	.	.	.	.	.
16AJJ	.	.	.	.	.	.	.	.	.	.	.
!	!	!	!	!	!	!LO:LB:g=original	!	!	!	!	!
=31	=31	=31	=31	=31	=31	=31	=31	=31	=31	=31	=31
8B-L\	.	.	2r	.	.	8fL	.	8ffL	.	8fL	8ffL
8BB-/	.	.	.	.	.	8fJ	.	8ffJ	.	8f	8ffJ
8BB-/	.	.	.	.	.	16e-LL	.	16ee-LL	.	8d	8ddL
.	.	.	.	.	.	16d	.	16dd	.	.	.
8B-J\	.	.	.	.	.	16c	.	16cc	.	8B-J	8b-J
.	.	.	.	.	.	16B-JJ	.	16b-JJ	.	.	.
!LO:LB:g=original	!	!	!	!	!	!	!	!	!	!LO:LB:g=original	!
=32	=32	=32	=32	=32	=32	=32	=32	=32	=32	=32	=32
16B-`LL	.	.	2r	.	.	16b-LL\	.	(>16b-LL\	.	8r	8r
16A`	.	.	.	.	.	16a	.	16a)	.	.	.
16c`	.	.	.	.	.	16cc	.	(16cc	.	8f	8f
16A`JJ	.	.	.	.	.	16aJJ	.	16aJJ)	.	.	.
4F`	.	.	.	.	.	4f	.	4f	.	4f	4f
=33	=33	=33	=33	=33	=33	=33	=33	=33	=33	=33	=33
8BB-L	.	p	8b-	dor-	dor-	8dL	.	8b-L	p	2r	2r
8BB-J	.	.	16b-LL	-mi	-mi	8f	.	8b-	.	.	.
.	.	.	16ddJJ	.	.	.	.	.	.	.	.
8FL	.	.	8cc	dor-	dor-	8e-	.	8cc	.	.	.
8FJ	.	.	16a	-mi	-mi	8fJ	.	8ccJ	.	.	.
.	.	.	16f	o	o	.	.	.	.	.	.
!	!	!	!LO:LB:g=original	!	!	!	!	!LO:LB:g=original	!	!	!
=34	=34	=34	=34	=34	=34	=34	=34	=34	=34	=34	=34
4B-	.	.	8b-	pu-	Je-	8b-L	.	8b-L	.	2r	2r
.	.	.	16b-LL	-pu-	-su-	16B-L	.	16b-L	.	.	.
.	.	.	16ddJJ	.	.	16dJJ	.	16ddJJ	.	.	.
16r	.	.	4ff	-le	-le	4f	.	4ff	.	.	.
16BB-LL/	.	.	.	.	.	.	.	.	.	.	.
16D	.	.	.	.	.	.	.	.	.	.	.
16FJJ	.	.	.	.	.	.	.	.	.	.	.
=35	=35	=35	=35	=35	=35	=35	=35	=35	=35	=35	=35
8B-L	.	.	8ff	dor-	Je-	8dL	.	8ffL	.	2r	2r
8B-J	.	.	16ddLL	-mi	-su-	8fJ	.	16ddL	.	.	.
.	.	.	16b-JJ	.	-le	.	.	16b-JJ	.	.	.
8FL	.	.	8ee-	dor-	Je-	8gL	.	8ee-L	.	.	.
8FJ	.	.	16cc	-mi	-su-	16e-L	.	16ccL	.	.	.
.	.	.	16a	o	-le	16cJJ	.	16aJJ	.	.	.
=36	=36	=36	=36	=36	=36	=36	=36	=36	=36	=36	=36
8B-L	.	.	8cc	Je-	par-	8.e-L	.	8.ccL	.	2r	2r
8FJ	.	.	16ccLL	-su-	-vu-	.	.	.	.	.	.
.	.	.	16ddJJ	.	.	16fJk	.	16ddJk	.	.	.
!	!	!	!LO:TX:a:t=Problem&colon; brak repetycji	!	!	!	!	!	!	!	!
4BB-	.	.	4b-	-le.	-le.	4d	.	8b-L	.	.	.
.	.	.	.	.	.	.	.	8ffJ	.	.	.
=37:|!	=37:|!	=37:|!	=37:|!	=37:|!	=37:|!	=37:|!	=37:|!	=37:|!	=37:|!	=37:|!	=37:|!
*tremolo	*	*	*	*	*	*	*	*	*	*	*
8B-L	.	.	2r	.	.	8fL 8dd\	.	8bb-L	f	8B-L	8b-L
8B-	.	.	.	.	.	8fJ 8dd	.	16bb-L	.	16B-L	16b-L
.	.	.	.	.	.	.	.	16dddJJ	.	16dJJ	16ddJJ
8B-	.	.	.	.	.	8ddL	.	8ffL	.	4F	4f
!	!	!	!	!	!	!	!	!LO:SIC:s=16ff	!	!	!
8B-J	.	.	.	.	.	16ddL	.	16ddL	.	.	.
!	!	!	!	!	!	!	!	!LO:SIC:s=16dd	!	!	!
.	.	.	.	.	.	16b-JJ	.	16b-JJ	.	.	.
*Xtremolo	*	*	*	*	*	*	*	*	*	*	*
=38	=38	=38	=38	=38	=38	=38	=38	=38	=38	=38	=38
8B-L	.	.	2r	.	.	8ccL	.	8ee-L	.	2r	2r
8B-J	.	.	.	.	.	16ccL	.	16ee-L	.	.	.
.	.	.	.	.	.	16ee-JJ	.	16ggJJ	.	.	.
16BB-LL/	.	.	.	.	.	4dd	.	4ff	.	.	.
16B-\	.	.	.	.	.	.	.	.	.	.	.
16A\	.	.	.	.	.	.	.	.	.	.	.
16B-JJ\	.	.	.	.	.	.	.	.	.	.	.
!LO:LB:g=original	!	!	!	!	!	!	!	!	!	!	!
=39	=39	=39	=39	=39	=39	=39	=39	=39	=39	=39	=39
8BB-L/	.	.	2r	.	.	8fL 8dd\	.	8bb-L	.	8B-L	8b-L
8B-\	.	.	.	.	.	8fJ 8dd	.	16bb-L	.	16B-L	16b-L
.	.	.	.	.	.	.	.	16dddJJ	.	16dJJ	16ddJJ
!	!	!	!	!	!	!LO:LB:g=original	!	!	!	!	!
8B-\	.	.	.	.	.	8fL 8dd	.	8ffL	p	4F	4f
!	!	!	!	!	!	!	!	!LO:SIC:s=16ff	!	!	!
8B-J\	.	.	.	.	.	16ddL	.	16ddL	.	.	.
!	!	!	!	!	!	!	!	!LO:SIC:s=16dd	!	!	!
.	.	.	.	.	.	16b-JJ	.	16ee-JJ	.	.	.
=40	=40	=40	=40	=40	=40	=40	=40	=40	=40	=40	=40
8FL	.	.	2r	.	.	16e-LL	.	(>16ffLL	.	2r	2r
.	.	.	.	.	.	16f	.	16ee-	.	.	.
8FJ	.	.	.	.	.	16e-	.	16cc	.	.	.
.	.	.	.	.	.	16fJJ	.	16aJJ)	.	.	.
4BB-	.	.	.	.	.	4d	.	8b-L	.	.	.
.	.	.	.	.	.	.	.	24ffL	.	.	.
.	.	.	.	.	.	.	.	24gg	.	.	.
.	.	.	.	.	.	.	.	24aaJJ	.	.	.
!	!	!	!	!	!	!	!	!LO:LO:g=original	!	!	!
=41	=41	=41	=41	=41	=41	=41	=41	=41	=41	=41	=41
*tremolo	*	*	*	*	*	*	*	*	*	*	*
8B-L	.	.	2r	.	.	16ddLL	.	16bb-LL	.	8.B-L	8.fL
.	.	.	.	.	.	16cc	.	16aa	.	.	.
8B-	.	.	.	.	.	16dd	.	16bb-	.	.	.
.	.	.	.	.	.	16ffJJ	.	16dddJJ	.	16dJk	16b-Jk
8B-	.	.	.	.	.	8ddL	.	8ffL	.	4f	4dd
8B-J	.	.	.	.	.	16ddL	.	16ddL	.	.	.
!	!	!	!	!	!	!	!	!LO:SIC:s=16ff	!	!	!
.	.	.	.	.	.	16b-JJ	.	16b-JJ	.	.	.
!	!	!	!	!	!	!	!	!LO:SIC:s=16dd	!	!	!
*Xtremolo	*	*	*	*	*	*	*	*	*	*	*
=42	=42	=42	=42	=42	=42	=42	=42	=42	=42	=42	=42
8B-L	.	.	2r	.	.	8ee-L	.	16ggLL	.	2r	2r
.	.	.	.	.	.	.	.	16ee-	.	.	.
8B-J	.	.	.	.	.	16ggL	.	16bb-	.	.	.
.	.	.	.	.	.	16ee-JJ	.	16ggJJ	.	.	.
16BB-LL\	.	.	.	.	.	4dd	.	4ff	.	.	.
16B-/	.	.	.	.	.	.	.	.	.	.	.
16A/	.	.	.	.	.	.	.	.	.	.	.
16B-JJ/	.	.	.	.	.	.	.	.	.	.	.
!	!	!	!	!	!	!	!	!	!	!LO:LB:g=original	!
=43	=43	=43	=43	=43	=43	=43	=43	=43	=43	=43	=43
8BB-L\	.	.	2r	.	.	8fL 8dd\	.	16bb-LL	.	8.B-L	8.fL
.	.	.	.	.	.	.	.	16aa	.	.	.
8B-/	.	.	.	.	.	8fJ 8dd	.	16bb-	.	.	.
.	.	.	.	.	.	.	.	16dddJJ	.	16dJk	16b-Jk
8B-/	.	.	.	.	.	8ddL	.	8ffL	.	4f	4dd
8BB-J\	.	.	.	.	.	16ddL	.	16ffL	.	.	.
.	.	.	.	.	.	16b-JJ	.	16ddJJ	.	.	.
=44	=44	=44	=44	=44	=44	=44	=44	=44	=44	=44	=44
8FL	.	.	2r	.	.	16fLL	.	16ccLL	.	4r	4r
.	.	.	.	.	.	16g	.	16ee-	.	.	.
8FJ	.	.	.	.	.	16e-	.	16cc	.	.	.
.	.	.	.	.	.	16cJJ	.	16aJJ	.	.	.
8B-L	.	.	.	.	.	4d	.	8b-L	.	8r	8r
8FJ	.	.	.	.	.	.	.	24ffL	.	8f	8dd
.	.	.	.	.	.	.	.	24gg	.	.	.
.	.	.	.	.	.	.	.	24aaJJ	.	.	.
=45	=45	=45	=45	=45	=45	=45	=45	=45	=45	=45	=45
8B-L	.	.	2r	.	.	8fL 8dd\	.	16bb-LL	.	8dL	8b-L
.	.	.	.	.	.	.	.	16ccc	.	.	.
8F	.	.	.	.	.	8f 8ee-	.	16aa	.	8fJ	8ddJ
.	.	.	.	.	.	.	.	16ffJJ	.	.	.
8B-	.	.	.	.	.	8f 8dd	.	16bb-LL	.	8dL	8b-L
.	.	.	.	.	.	.	.	16ccc	.	.	.
8FJ	.	.	.	.	.	8fJ 8ee-	.	16aa	.	8fJ	8ddJ
.	.	.	.	.	.	.	.	16ffJJ	.	.	.
!LO:LB:g=original	!	!	!	!	!	!	!	!	!	!	!
=46	=46	=46	=46	=46	=46	=46	=46	=46	=46	=46	=46
*	*	*	*	*	*	*tremolo	*	*tremolo	*	*	*
16BB-LL\	.	.	2r	.	.	8fL 8dd\	.	8bb-L	.	8dL	8b-L
16B-/	.	.	.	.	.	.	.	.	.	.	.
16A/	.	.	.	.	.	8f 8dd	.	8bb-	.	8B-	8fJ
16B-JJ/	.	.	.	.	.	.	.	.	.	.	.
16FLL	.	.	.	.	.	8f 8dd	.	8bb-	.	8d	8b-L
16B-	.	.	.	.	.	.	.	.	.	.	.
16D	.	.	.	.	.	8fJ 8dd	.	8bb-J	.	8fJ	8ddJ
16FJJ	.	.	.	.	.	.	.	.	.	.	.
*	*	*	*	*	*	*Xtremolo	*	*Xtremolo	*	*	*
=47	=47	=47	=47	=47	=47	=47	=47	=47	=47	=47	=47
!LO:TX:b:t=Dal Segno	!	!	!	!	!	!LO:TX:b:t=Dal Segno	!	!	!	!LO:TX:b:t=Dal Segno	!
2BB-	.	.	2r	.	.	2f 2dd\	.	2bb-	.	2d	2b-
=||	=||	=||	=||	=||	=||	=||	=||	=||	=||	=||	=||
*-	*-	*-	*-	*-	*-	*-	*-	*-	*-	*-	*-
!!!system-decoration: s1,s2,s3,s4,s5,s6
!!!RDF**kern: > = above
!!!RDF**kern: < = below
!!!ENC: Anna Matuszewska
!!!END: 2020-03-25
